X:81
T:Highway to Scarborough. Ru2.081, The
%%VWML:RutherfordVol2-2249-p41-0
F:http://www.vwml.org/record/RutherfordVol2/2249/p41
B:RUTHERFORD Complete Collection of 200 Country Dances Vol.2; 1759.
Z:vmp.Mike Hicken 2015 www.village-music-project.org.uk
M:6/8
Q:3/8=120
K:G
g2e d2c|BGB dcB|cBc Aag|fge fed|
gfg efg|abg fed|efg dgf|gdB G3 :|
|: TB>AB c2A|TB>AB gdc|TB>AB c2A|bge afd|
TB>AB c2A|TB>AB gdB|efg dgf|gdB G3 :|
W:
W: Hey contrary sides .|  then on your own :|  cross
W: over two Cu: & turn .|.  lead to the top foot it & cast
W: off :|.
T:pretty Witch of Lancaster. Ru2.082, The
L:1/8
B:RUTHERFORD Complete Collection of 200 Country Dances Vol.2; 1759.
Z:vmp.Mike Hicken 2015 www.village-music-project.org.uk
N: * In the original these groups of quavers are not shown as triplets.
M:C
Q:1/4=100
K:F
A|F>GFA cdfd|cAfA G/G/G G2| FGFA cdfd|cAfA F/F/F F :|
|:(f/g/)|agfd fdcA|FA fA G/G/G  G(f/g/)|"*"(3agf (3gfd (3fdc (3dcA|FA fA F/F/F F :|
W:
W: Cast off two Cu: .|  lead to the top & cast
W: off:|  lead thro the 3d. Cu: cast up & turn
W: your partner .|.  right & left at top :|.
